fba/_inc/system.svg

<svg xmlns="http://www.w3.org/2000/svg"><g clip-rule="evenodd" fill="#fff" fill-rule="evenodd"><path d="m599.951 192.599c.111-1.437 0-2.925 0-4.128.018-27.522.021-55.041-.006-82.563-.003-1.428-.078-2.907-.444-4.278-7.942-29.82-22.323-55.806-46.145-75.905-19.562-16.499-42.031-25.703-67.921-25.697-68.233.012-136.466.003-204.702.003-91.84 0-183.676 0-275.512.012-1.696 0-3.391-.087-5.221 0v62.55c1.284.501 2.4 1.005 3.558 1.374 8.443 2.697 16.892 5.368 25.341 8.044 85.074 26.934 170.147 53.867 255.221 80.81 40.177 12.725 80.342 25.494 120.532 38.185 2.523.795 5.205 1.536 7.815 1.539 61.123.084 122.245.066 183.367.054 1.2 0 2.679.111 4.117 0zm-236.863-3.966c-54.788-17.366-109.136-34.591-164.162-52.031v241.599c-23.681 11.945-47.02 23.718-70.198 35.41v71.284h287.253c0-46.165 0-92.049 0-138.539-17.693 0-35.119 0-52.893 0 0-52.826 0-105.044 0-157.723zm18.596 18.884v121.512h218c0-40.594 0-80.915 0-121.512-72.758 0-145.239 0-218 0z"/><path d="m599.951 192.599-190.532-.054-409.419-129.751s0-41.71 0-62.754c1.83-.084 188.893-.009 280.733-.009 68.233 0 136.469.006 204.702-.003 25.89-.006 48.359 9.198 67.921 25.697 23.822 20.099 38.203 46.085 46.145 75.905.366 1.371.441 2.85.444 4.278.027 27.522.006 86.691.006 86.691z"/><path d="m363.088 188.633v157.72h52.893v138.539c-95.827 0-191.39 0-287.253 0 0-23.762 0-47.296 0-71.284 23.178-11.692 46.517-23.462 70.198-35.41 0-80.354 0-160.573 0-241.599 55.026 17.443 109.371 34.668 164.162 52.034z"/></g></svg>

<?xml version="1.0" encoding="utf-8"?>
<svg version="1.1" xmlns="http://www.w3.org/2000/svg">
  <g>
    <path fill-rule="evenodd" clip-rule="evenodd" d="M 599.951 192.599 C 600.062 191.162 599.951 189.674 599.951 188.471 C 599.969 160.949 599.972 133.43 599.945 105.908 C 599.942 104.48 599.867 103.001 599.501 101.63 C 591.559 71.81 577.178 45.824 553.356 25.725 C 533.794 9.226 511.325 0.022 485.435 0.028 C 417.202 0.04 348.969 0.031 280.733 0.031 C 188.893 0.031 97.057 0.031 5.221 0.043 C 3.525 0.043 1.83 -0.044 0 0.043 C 0 21.084 0 41.882 0 62.593 C 1.284 63.094 2.4 63.598 3.558 63.967 C 12.001 66.664 20.45 69.335 28.899 72.011 C 113.973 98.945 199.046 125.878 284.12 152.821 C 324.297 165.546 364.462 178.315 404.652 191.006 C 407.175 191.801 409.857 192.542 412.467 192.545 C 473.59 192.629 534.712 192.611 595.834 192.599 C 597.034 192.599 598.513 192.71 599.951 192.599 Z M 363.088 188.633 C 308.3 171.267 253.952 154.042 198.926 136.602 C 198.926 217.628 198.926 297.847 198.926 378.201 C 175.245 390.146 151.906 401.919 128.728 413.611 C 128.728 437.596 128.728 461.13 128.728 484.895 C 224.591 484.895 320.154 484.895 415.981 484.895 C 415.981 438.73 415.981 392.846 415.981 346.356 C 398.288 346.356 380.862 346.356 363.088 346.356 C 363.088 293.53 363.088 241.312 363.088 188.633 Z M 381.684 207.517 C 381.684 248.111 381.684 288.432 381.684 329.029 C 454.442 329.029 526.923 329.029 599.684 329.029 C 599.684 288.435 599.684 248.114 599.684 207.517 C 526.926 207.517 454.445 207.517 381.684 207.517 Z" id="path7" style="fill-opacity: 1; fill: rgb(255, 255, 255);"/>
    <path fill-rule="evenodd" clip-rule="evenodd" d="M 599.951 192.599 L 409.419 192.545 L 0 62.794 C 0 62.794 0 21.084 0 0.04 C 1.83 -0.044 188.893 0.031 280.733 0.031 C 348.966 0.031 417.202 0.037 485.435 0.028 C 511.325 0.022 533.794 9.226 553.356 25.725 C 577.178 45.824 591.559 71.81 599.501 101.63 C 599.867 103.001 599.942 104.48 599.945 105.908 C 599.972 133.43 599.951 192.599 599.951 192.599 Z" id="path13" style="fill-opacity: 1; fill: rgb(255, 255, 255);"/>
    <path fill-rule="evenodd" clip-rule="evenodd" d="M 363.088 188.633 C 363.088 241.312 363.088 293.53 363.088 346.353 C 380.862 346.353 398.288 346.353 415.981 346.353 C 415.981 392.843 415.981 438.727 415.981 484.892 C 320.154 484.892 224.591 484.892 128.728 484.892 C 128.728 461.13 128.728 437.596 128.728 413.608 C 151.906 401.916 175.245 390.146 198.926 378.198 C 198.926 297.844 198.926 217.625 198.926 136.599 C 253.952 154.042 308.297 171.267 363.088 188.633 Z" id="path19" style="fill-opacity: 1; fill: rgb(255, 255, 255);"/>
  </g>
</svg>
